X: 31524
T: Paddy's Leather Breeches
R: jig
M: 6/8
K: Bminor
|:BBB f2e|fBB f2e|BBB f2e|cAA e2c|
BBB f2e|fBB f2e|fga efa|cAA e2c:|
|:a3 f2e|fBB f2e|a3 f2e|cAA e2c|
a3 f2e|fBB f2 e|fga efa|cAA e2c:|
|:BBB ccc|BBB f2e|ccc BBB|AAA e2c|
BBB ccc|BBB f2e|fga efa|cAA e2c:|
|:aga f2e|fBB f2e|aga f2e|cAA e2c|
aga f2e|fBB f2 e|fga efa|cAA e2c:|

